icon-themes/breeze_svg/res/sc10223.svg

<svg viewBox="0 0 16 10" xmlns="http://www.w3.org/2000/svg"><path d="m2 0v2h-2v1h2v2h1v-2h2v-1h-2v-2z" fill="#1d99f3"/><path d="m6 2v1h7v6h-10v-3h-1v4h1 10 1v-1-6-1z" fill="#4d4d4d"/></svg>

<svg xmlns="http://www.w3.org/2000/svg" viewBox="0 0 16 10">
 <path 
     style="fill:#1d99f3" 
     d="M 2 0 L 2 2 L 0 2 L 0 3 L 2 3 L 2 5 L 3 5 L 3 3 L 5 3 L 5 2 L 3 2 L 3 0 L 2 0 z "
     />
 <path 
     style="fill:#4d4d4d" 
     d="M 6 2 L 6 3 L 13 3 L 13 9 L 3 9 L 3 6 L 2 6 L 2 10 L 3 10 L 13 10 L 14 10 L 14 9 L 14 3 L 14 2 L 6 2 z "
     />
 </svg>
